/* XPM */
static char *image[] = {
"64 64 387 2",
"   c None",
"00 c #212225",
"10 c #202324",
"20 c #222326",
"30 c #222426",
"40 c #232427",
"50 c #232628",
"60 c #232728",
"70 c #242728",
"80 c #242828",
"90 c #24282a",
":0 c #26282b",
";0 c #272a2b",
"A0 c #272b2e",
"B0 c #282d2e",
"C0 c #282e2e",
"D0 c #282e2f",
"E0 c #282e31",
"F0 c #2a2e31",
"G0 c #2b3131",
"H0 c #2b3132",
"I0 c #2b3133",
"J0 c #2b3233",
"K0 c #222427",
"L0 c #232627",
"M0 c #242629",
"N0 c #242729",
"O0 c #25272a",
"P0 c #25282a",
"Q0 c #26282a",
"R0 c #26292a",
"S0 c #26292b",
"T0 c #262a2b",
"U0 c #262a2c",
"V0 c #272a2c",
"W0 c #272a2d",
"X0 c #272b2d",
"Y0 c #282b2d",
"Z0 c #292c2e",
"a0 c #292d2e",
"b0 c #292d2f",
"c0 c #2a2e2f",
"d0 c #2a2e30",
"e0 c #2a2f31",
"f0 c #2b2f31",
"g0 c #2b2f32",
"h0 c #2b3032",
"i0 c #2c3032",
"j0 c #2c3132",
"k0 c #2d3233",
"l0 c #2e3334",
"m0 c #2e3335",
"n0 c #2e3436",
"o0 c #2f3536",
"p0 c #2e3535",
"q0 c #282b2e",
"r0 c #2d3033",
"s0 c #343a3c",
"t0 c #2c2f32",
"u0 c #2e3133",
"v0 c #2e3132",
"w0 c #2e3134",
"x0 c #2e3234",
"y0 c #2f3335",
"z0 c #303336",
"01 c #323537",
"11 c #333839",
"21 c #404949",
"31 c #2f3336",
"41 c #32393a",
"51 c #2f3235",
"61 c #303436",
"71 c #343a3b",
"81 c #2f3435",
"91 c #313437",
":1 c #303437",
";1 c #41494c",
"A1 c #2f3437",
"B1 c #303536",
"C1 c #303537",
"D1 c #353b3c",
"E1 c #353c3d",
"F1 c #313537",
"G1 c #454a4d",
"H1 c #9da2a3",
"I1 c #434c4c",
"J1 c #323538",
"K1 c #c5caca",
"L1 c #dbe0e0",
"M1 c #7f8686",
"N1 c #303638",
"O1 c #303538",
"P1 c #dbe1e1",
"Q1 c #303637",
"R1 c #434d4f",
"S1 c #313637",
"T1 c #c6caca",
"U1 c #313538",
"V1 c #323638",
"W1 c #323838",
"X1 c #dce1e1",
"Y1 c #acb2b2",
"Z1 c #34393b",
"a1 c #323738",
"b1 c #303738",
"c1 c #313638",
"d1 c #454b4d",
"e1 c #dce2e2",
"f1 c #444f4f",
"g1 c #34383b",
"h1 c #34393c",
"i1 c #363d3f",
"j1 c #313738",
"k1 c #313639",
"l1 c #454b4c",
"m1 c #41484a",
"n1 c #353a3c",
"o1 c #333739",
"p1 c #313739",
"q1 c #323639",
"r1 c #323739",
"s1 c #33383a",
"t1 c #c7cbcb",
"u1 c #353a3b",
"v1 c #353a3d",
"w1 c #373c3f",
"x1 c #32373a",
"y1 c #323839",
"z1 c #33383b",
"02 c #454c4c",
"12 c #dde2e2",
"22 c #adb2b3",
"32 c #363b3d",
"42 c #393f40",
"52 c #33373a",
"62 c #32383b",
"72 c #464c4c",
"82 c #465052",
"92 c #353b3d",
":2 c #363b3e",
";2 c #383d3f",
"A2 c #33393b",
"B2 c #32383a",
"C2 c #464c4d",
"D2 c #dfe3e3",
"E2 c #adb3b4",
"F2 c #465252",
"G2 c #363c3e",
"H2 c #394143",
"I2 c #484e4f",
"J2 c #c8cccc",
"K2 c #dee3e3",
"L2 c #aeb3b4",
"M2 c #353b3e",
"N2 c #373c3e",
"O2 c #545b5d",
"P2 c #ced3d4",
"Q2 c #dfe4e4",
"R2 c #e0e4e4",
"S2 c #aeb4b5",
"T2 c #42494b",
"U2 c #373b3e",
"V2 c #383f40",
"W2 c #565c5e",
"X2 c #d1d6d6",
"Y2 c #e1e5e5",
"Z2 c #e1e6e6",
"a2 c #b0b5b5",
"b2 c #373d3e",
"c2 c #373d3f",
"d2 c #565d5f",
"e2 c #d3d7d7",
"f2 c #e2e7e7",
"g2 c #e3e7e7",
"h2 c #b2b7b7",
"i2 c #434b4d",
"j2 c #495353",
"k2 c #383d3e",
"l2 c #383f41",
"m2 c #575f60",
"n2 c #d3d8d8",
"o2 c #e4e8e8",
"p2 c #e5e8e8",
"q2 c #b2b8b8",
"r2 c #444c4d",
"s2 c #495355",
"t2 c #394041",
"u2 c #586060",
"v2 c #d5d9d9",
"w2 c #e6e9e9",
"x2 c #e6eaea",
"y2 c #b4b9b9",
"z2 c #383e40",
"03 c #596161",
"13 c #d7dada",
"23 c #e7ebeb",
"33 c #e8ebeb",
"43 c #b6babb",
"53 c #393f41",
"63 c #3a4142",
"73 c #5a6263",
"83 c #d8dbdb",
"93 c #e9ecec",
":3 c #eaecec",
";3 c #b6bbbc",
"A3 c #464f50",
"B3 c #383e41",
"C3 c #394042",
"D3 c #d9dddd",
"E3 c #eaeded",
"F3 c #ebeeee",
"G3 c #b8bcbc",
"H3 c #384043",
"I3 c #3a4042",
"J3 c #5b6364",
"K3 c #dadede",
"L3 c #ecefef",
"M3 c #edefef",
"N3 c #b9bebe",
"O3 c #3a4043",
"P3 c #5b6365",
"Q3 c #dcdfdf",
"R3 c #eef0f0",
"S3 c #bbbfbf",
"T3 c #485153",
"U3 c #3a4143",
"V3 c #3b4243",
"W3 c #5c6465",
"X3 c #dde0e0",
"Y3 c #eff1f1",
"Z3 c #f0f2f2",
"a3 c #bcc0c0",
"b3 c #495253",
"c3 c #4c5657",
"d3 c #3b4143",
"e3 c #5e6566",
"f3 c #dee1e1",
"g3 c #f1f3f3",
"h3 c #f2f3f3",
"i3 c #8e9495",
"j3 c #3b4244",
"k3 c #3c4446",
"l3 c #5e6767",
"m3 c #e0e2e2",
"n3 c #afb4b4",
"o3 c #3b4344",
"p3 c #3c4344",
"q3 c #576061",
"r3 c #4c5757",
"s3 c #3c4345",
"t3 c #4c5759",
"u3 c #3b4346",
"v3 c #3c4445",
"w3 c #3b4446",
"x3 c #3d4446",
"y3 c #3d4546",
"z3 c #3d4547",
"04 c #3d4646",
"14 c #3e4547",
"24 c #4f5a5a",
"34 c #3e4647",
"44 c #3e4648",
"54 c #455051",
"64 c #4c5959",
"74 c #4f5a5c",
"84 c #3e4649",
"94 c #3f4748",
":4 c #41494a",
";4 c #414a4c",
"A4 c #454e4f",
"B4 c #3f4749",
"C4 c #424a4c",
"D4 c #424c4d",
"E4 c #434c4e",
"F4 c #465151",
"G4 c #495555",
"H4 c #4c5758",
"I4 c #3e4749",
"J4 c #3f4849",
"K4 c #404849",
"L4 c #485353",
"M4 c #495354",
"N4 c #4a5657",
"O4 c #4f5c5d",
"P4 c #4f5959",
"Q4 c #40484a",
"R4 c #40494a",
"S4 c #41494b",
"T4 c #414a4b",
"U4 c #424b4c",
"V4 c #424b4d",
"W4 c #434c4d",
"X4 c #434d4e",
"Y4 c #444d4e",
"Z4 c #444d4f",
"a4 c #444e4f",
"b4 c #454f50",
"c4 c #465051",
"d4 c #465152",
"e4 c #475152",
"f4 c #475252",
"g4 c #475253",
"h4 c #485253",
"i4 c #485354",
"j4 c #495454",
"k4 c #495455",
"l4 c #4a5555",
"m4 c #4a5556",
"n4 c #4a5656",
"o4 c #4b5657",
"p4 c #4b5757",
"q4 c #4b5758",
"r4 c #4c5858",
"s4 c #4c5859",
"t4 c #4d5959",
"u4 c #4d595a",
"v4 c #4d5a5a",
"w4 c #4e5a5a",
"x4 c #4e5a5b",
"y4 c #4e5b5b",
"z4 c #4f5b5c",
"05 c #4f5c5c",
"15 c #505d5d",
"25 c #616c6c",
"35 c #6e7475",
"45 c #687070",
"55 c #666d6e",
"65 c #676d6f",
"75 c #676e6f",
"85 c #676e70",
"95 c #686f70",
":5 c #686f71",
";5 c #697071",
"A5 c #697171",
"B5 c #697172",
"C5 c #6a7172",
"D5 c #6a7273",
"E5 c #6b7374",
"F5 c #6b7475",
"G5 c #6c7475",
"H5 c #6c7575",
"I5 c #6d7575",
"J5 c #6d7576",
"K5 c #6d7676",
"L5 c #6d7677",
"M5 c #6e7778",
"N5 c #6e7878",
"O5 c #6f7879",
"P5 c #6f7979",
"Q5 c #707979",
"R5 c #70797a",
"S5 c #707a7a",
"T5 c #717a7a",
"U5 c #717a7b",
"V5 c #717b7b",
"W5 c #717b7c",
"X5 c #717c7c",
"Y5 c #727c7d",
"Z5 c #727d7d",
"a5 c #737d7d",
"b5 c #757f80",
"c5 c #7a8585",
"d5 c #73787a",
"e5 c #747b7c",
"f5 c #757c7c",
"g5 c #757c7d",
"h5 c #757d7d",
"i5 c #777d7d",
"j5 c #787d7d",
"k5 c #787d7f",
"l5 c #787f80",
"m5 c #788080",
"n5 c #788082",
"o5 c #798082",
"p5 c #798283",
"q5 c #798383",
"r5 c #7b8383",
"s5 c #7c8384",
"t5 c #7c8484",
"u5 c #7c8486",
"v5 c #7d8686",
"w5 c #7d8687",
"x5 c #7d8787",
"y5 c #7d8788",
"z5 c #7d8888",
"06 c #7f8888",
"16 c #7e8989",
"                                                                                                                                ",
"                                                                                                                                ",
"                                                                                                                                ",
"                                                                                                                                ",
"                                                                                                                                ",
"            16060606z5z5y5x5x5x5x5w5v5v5u5t5t5t5t5s5r5r5r5q5q5q5p5p5o5n5n5m5m5l5l5l5k5k5j5i5i5i5h5g5g5g5f5f5e5e5e5d5            ",
"          c5b5a5a5Z5Z5Y5X5X5W5V5U5T5S5R5Q5Q5P5O5O5N5M5M5L5L5K5J5J5I5H5H5G5F5E5E5E5D5D5C5B5B5A5A5;5;5:59595857565554535          ",
"          2515150505z4y4x4w4v4u4t4s4s4r4q4p4o4o4n4m4l4k4k4j4i4i4h4g4f4e4d4c4c4b4b4b4a4a4Z4Y4X4W4W4V4U4U4T4T4S4R4R4Q4P4          ",
"          15O40505z4y4x4w4v4u4t4s4r4r4q4p4o4N4m4m4l4k4k4M4i4L4h4g4e4e4d4c4c4b4b4b4a4a4Y4X4X4W4W4V4U4U4T4T4S4R4Q4K4J4I4          ",
"          O40505y4y4x4w4u4u4t4s4r4H4q4p4o4n4m4m4G4k4k4i4i4L4h4g4e4e4F4c4c4b4b4b4a4a4Y4X4E4W4D4U4U4C4T4T4S4R4Q4K4J4B4I4          ",
"          05z4y4y4x4v4u4t4t4s4r4H4q4p4o4n4m4m4G4k4j4i4i4h4g4g4e4e4c4c4c4b4b4A4a4a4Y4X4E4W4D4U4U4;4T4T4:4R4Q4K4J4B49484          ",
"          74y4y4x4v4u4t464s4r4H4p4o4o4n4m4m4k4k4j4i4i4h4g4f4e4d4c4c454b4b4A4a4a4Y4X4W4W4V4U4U4;4T4S4R4R4Q4K4B494944434          ",
"          24x4w4v4u4t4s4s4r4q4p4o4o4n4m4l4k4k4j4i4i4h4g4f4e4d4c4c4b4b4b4a4a4Z4Y4X4W4W4V4U4U4T4T4S4R4R4Q4J4B49494443434          ",
"          24w4v4u4t4s4r4r4q4p4o4N4m4m4l4k4k4M4i4L4h4g4e4e4d4c4c4b4b4b4a4a4Y4X4X4W4W4V4U4U4T4T4S4R4Q4K4J4B4944444341404          ",
"          24u4u4t4s4r4H4q4p4o4n4m4m4G4k4k4i4i4L4h4g4e4e4F4c4c4b4b4b4a4a4Y4X4E4W4D4U4U4C4T4T4S4R4Q4K4J4B494443434z3y3x3          ",
"          u4t4t4s4r4H4q4p4o4n4m4m4G4k4j4i4i4h4g4g4e4e4c4c4c4b4b4A4a4a4Y4X4E4W4D4U4U4;4T4T4:4R4Q4K4J4B494443414z3y3x3w3          ",
"          t464s4r4H4p4o4o4n4m4m4k4k4j4i4i4h4g4f4e4d4c4c454b4b4A4a4a4Y4X4W4W4V4U4U4;4T4S4R4R4Q4K4B49494443414z3y3x3v3u3          ",
"          t3s4r4q4p4o4o4n4m4l4k4k4j4i4i4h4g4f4e4d4c4c4b4b4b4a4a4Z4Y4X4W4W4V4U4U4T4T4S4R4R4Q4J4B49494443414y3x3x3v3s3u3          ",
"          r3r4q4p4o4N4m4m4l4k4k4M4i4L4h4g4e4e4d4c4c4c4q3b4a4a4Y4X4X4W4W4V4U4U4T4T4S4R4Q4K4J4B49444443414y3x3x3v3s3p3o3          ",
"          r3q4p4o4n4m4m4G4k4k4i4i4L4h4g4e4e4F4c4c4c4n3m3l3a4Y4X4E4W4D4U4U4C4T4T4S4R4Q4K4J4B494443434z3y3x3k3v3s3p3j3o3          ",
"          r3p4o4n4m4m4G4k4j4i4i4h4g4g4e4e4c4c4c4b4i3h3g3f3e3X4E4W4D4U4U4;4T4T4:4R4Q4K4J4B494443414z3y3x3v3s3s3o3j3j3d3          ",
"          c3o4n4m4m4k4k4j4i4i4h4g4f4e4d4c4c454b4b4b3a3Z3Y3X3W3W4V4U4U4;4T4S4R4R4Q4K4B49494443414z3y3x3v3s3s3o3j3V3U3U3          ",
"          c3n4m4l4k4k4j4i4i4h4g4f4e4d4c4c4b4b4b4a4a4T3S3R3R3Q3P3U4U4T4T4S4R4R4Q4J4B49494443414y3x3x3v3s3s3j3j3V3U3U3O3          ",
"          m4m4l4k4k4M4i4L4h4g4e4e4d4c4c4b4b4b4a4a4Y4X4e4N3M3L3K3J3T4T4S4R4Q4K4J4B49444443414y3x3x3v3s3p3j3j3V3U3U3I3H3          ",
"          m4G4k4k4i4i4L4h4g4e4e4F4c4c4b4b4b4a4a4Y4X4E4W4c4G3F3E3D3J3S4R4Q4K4J4B494443434z3y3x3k3v3s3p3j3j3d3U3U3I3C3B3          ",
"          G4k4j4i4i4h4g4g4e4e4c4c4c4b4b4A4a4a4Y4X4E4W4D4U4A3;3:3938373Q4K4J4B494443414z3y3x3v3s3s3o3j3j3d3U363I3C353B3          ",
"          G4j4i4i4h4g4f4e4d4c4c454b4b4A4a4a4Y4X4W4W4V4U4U4;4A44333231303B49494443414z3y3x3v3s3s3o3j3V3U3U3I3I3C35353z2          ",
"          G4i4i4h4g4f4e4d4c4c4b4b4b4a4a4Z4Y4X4W4W4V4U4U4T4T4S4Y4y2x2w2v2u294443414y3x3x3v3s3s3j3j3V3U3U3I3C3t25353z2z2          ",
"          s2L4h4g4e4e4d4c4c4b4b4b4a4a4Y4X4X4W4W4V4U4U4T4T4S4R4Q4r2q2p2o2n2m23414y3x3x3v3s3p3j3j3V3U3U3I3C35353l2z2z2k2          ",
"          j2h4g4e4e4F4c4c4b4b4b4a4a4Y4X4E4W4D4U4U4C4T4T4S4R4Q4K4J4i2h2g2f2e2d2y3x3k3v3s3p3j3j3d3U363I3C35353l2z2z2c2b2          ",
"          g4g4e4e4c4c4c4b4b4A4a4a4Y4X4E4W4D4U4U4;4T4T4:4R4Q4K4J4B494C4a2Z2Y2X2W2v3s3s3o3j3j3d3U363I3C35353V2z2z2c2c2U2          ",
"          f4e4d4c4c454b4b4A4a4a4Y4X4W4W4V4U4U4;4T4S4R4R4Q4K4B494944434T2S2R2Q2P2O2s3o3j3V3U3U3I3I3C35353z2z2z2c2c2N2M2          ",
"          f4d4c4c4b4b4b4a4a4Z4Y4X4W4W4V4U4U4T4T4S4R4R4Q4J4B49494443414:4L2Q2K2J2I2H2j3V3U3U3I3C3t25353z2z2z2c2c2N2G2M2          ",
"          F2c4c4b4b4b4a4a4Y4X4X4W4W4V4U4U4T4T4S4R4Q4K4J4B49444443414:4E2D2K2J2C2B2A2t2U3U3I3C35353l2z2z2;2c2c2N2G2:292          ",
"          82c4b4b4b4a4a4Y4X4E4W4D4U4U4C4T4T4S4R4Q4K4J4B494443434z3:4E2K2K2J272626252B242I3C35353l2z2z2c2c2c2N2G2323292          ",
"          82b4b4A4a4a4Y4X4E4W4D4U4U4;4T4T4:4R4Q4K4J4B494443414z3:422K212J20262z152y1y1x1l25353V2z2z2c2c2w1G2G23232v1u1          ",
"          A3b4A4a4a4Y4X4W4W4V4U4U4;4T4S4R4R4Q4K4B49494443414z3:422K212t10262s1r1y1r1q1p1o1z2z2z2z2c2c2N2G2G23292v1n1u1          ",
"          A3a4a4Z4Y4X4W4W4V4U4U4T4T4S4R4R4Q4J4B49494443414y3m1221212t1l1B2s1r1y1r1k1j1k1j1x1i1z2c2c2N2G2:23292n1n1h1g1          ",
"          f1a4Y4X4X4W4W4V4U4U4T4T4S4R4Q4K4J4B49444443414y3m12212e1t1d1B2s1y1y1r1p1c1k1b1c1a1q1G2c2N2G2:23292n1n1h1Z1g1          ",
"          f1Y4X4E4W4D4U4U4C4T4T4S4R4Q4K4J4B494443434z3y3m1Y112X1t1d1B252y1W1r1p1V1k1b1c1a1U1c1x132G2323292n1n1h1Z1g1B2          ",
"          Z4X4E4W4D4U4U4;4T4T4:4R4Q4K4J4B494443414z3y3m1Y112X1T1d1B252y1W1r1p1V1k1j1c1a1U1c1k1S1r1n132v1n1n1Z1Z1g1s1B2          ",
"          R1W4W4V4U4U4;4T4S4R4R4Q4K4B49494443414z3y3m1Y1X1X1T1d1B2x1y1a1r1p1V1k1c1c1a1U1c1c1Q1c1U1c1h1n1n1Z1Z1g1s1s1a1          ",
"          W4W4V4U4U4T4T4S4R4R4Q4J4B49494443414y3x3m1Y1X1P1T1d1B2x1y1a1p1j1V1c1S1c1c1O1c1c1Q1U1c1N1S1r1z1Z1Z1z1s152o1a1          ",
"          W4V4U4U4T4T4S4R4Q4K4J4B49444443414y3x3x3M1X1L1K1d1B2x1y1p1k1c1V1N1S1c1S1O1c1c1Q1U1c1N1S1V1k1c1Z1s1s152r1r1J1          ",
"          I1U4C4T4T4S4R4Q4K4J4B494443434z3y3x3k3v3x3H1K1G152r1W1p1k1c1V1N1S1c1S1O1c1c1Q1F1c1N1S1V1k1c1J1c1s152r1q1V1U1          ",
"          I1;4T4T4:4R4Q4K4J4B494443414z3y3x3v3s3s3o3s3G152r1W1p1k1c1q1b1S1c1S1O1U1N1Q1F1c1O1S1V1c1c1J1c1r1q1r1q1V1c1U1          ",
"          ;4T4S4R4R4Q4K4B49494443414z3y3x3v3s3s3o3j3V3U3E1a1r1k1c1q1N1S1c1S1O1F1N1Q1F1N1O1S1V1c1F1U1c1V1V1r1q1V1U1U1F1          ",
"          ;4S4R4R4Q4J4B49494443414y3x3x3v3s3s3j3j3V3U3U3I3D1c1c1q1N1S1c1S1O1F1N1C1F1N1B1F1U1c1F1O1c1J1V1r1q1V1U1F1F1A1          ",
"          ;1R4Q4K4J4B49444443414y3x3x3v3s3p3j3j3V3U3U3I3C353n1k1N1S1F1S1N1F1Q1:1F1N1B1F1U1c1F1C1c1J1c1r1q1V1U1F191:181          ",
"          R4Q4K4J4B494443434z3y3x3k3s3s3p3j3j3d3U363I3C35353l271S1Q1C1N1F1Q161F1c1B1F1U1c191C1c1J1c1q1V1c1U1F1:1:16151          ",
"          R4K4J4B494443414z3y3x3v3s3s3o3j3j3d3U363I3C35353V2z2z241C1O1C1S161F1U1B1F1F1c191C1c1J1c1q1V1c1U1F1:161613151          ",
"          21B49494443414z3y3x3v3s3s3o3j3V3U3U3I3I3C35353z2z2z2c2c211C1S161C1U1B1F1F1c191C1c101c1q1V1U1U1F1:161z031y051          ",
"          I49494443414y3x3x3v3s3s3j3j3V3U3U3I3C3t25353z2z2z2c2c2N2G252:1C1F1B1:1F1c1:1C1F1F1c1q1V1U1F1F1:161z031y051x0          ",
"          I444443414y3x3x3v3s3p3j3j3V3U3U3I3C35353l2z2z2;2c2c2N2G2:232r1F1B1:1C1S161C1F1C1c1q1V1U1F191:161z0y05151x0w0          ",
"          843434z3y3x3k3s3s3p3j3j3d3U363I3C35353l2z2z2c2c2c2N2G2323292n1r1:1C1F1:1C1F1C1U1V1c1U1F1:1:161z0y05151x0w0v0          ",
"          3414z3y3x3v3s3s3o3j3j3d3U363I3C35353z2z2z2c2c2w1G2G23232v1n1n1Z1r1F1:1C1F1C1U1V1c1U1F1:1616131y05151w0w0u0t0          ",
"          l2z3y3x3v3s3s3o3j3V3U3U3I3I3C35353z2z2z2c2c2N2G2G23292v1n1s0Z1Z1g1k1C1F1C1U1V1U1U1F1:161z031y051x0w0w0u0r0q0          ",
"          p0Q1c1Q1Q1Q1o0o0o0n0n0m0m0l0x0x0k0k0k0j0j0i0h0g0f0e0d0d0d0c0c0b0a0Z0Y0X0W0Y0W0V0V0U0T0S0S0R0Q0P0O0O0N0M0L0K0          ",
"            k0J0I0H0H0H0G0e0e0F0E0D0D0D0C0C0B0B0B0q0A0A0X0X0;0;0:0:0:09090908080707060605050L04040404030202010101000            ",
"                                                                                                                                ",
"                                                                                                                                ",
"                                                                                                                                ",
"                                                                                                                                ",
"                                                                                                                                "};
